images/site-logo.svg

<svg xmlns="http://www.w3.org/2000/svg" width="122" height="29" viewBox="0 0 122 29" fill="none">
<g clip-path="url(#clip0_9031_252)">
<path d="M1.90595 5.63978V11.2404C1.90595 12.1591 1.90595 13.191 0 13.191V14.7042V14.7246V16.1999C1.90595 16.1999 1.90595 17.2312 1.90595 18.1505V23.7505C1.90595 28.097 4.28734 28.4125 8.33667 28.4125V25.0321C6.43072 25.0321 5.71666 24.7515 5.71666 23.6671V18.1219C5.71666 16.8415 5.80457 15.5039 4.68683 14.6949C5.80457 13.8869 5.71666 12.5494 5.71666 11.2678V5.72378C5.71666 4.64053 6.43131 4.35878 8.33667 4.35878V0.977784C4.28734 0.977201 1.90595 1.29278 1.90595 5.63978ZM12.6216 5.45837C11.5804 6.33803 11.0601 7.60153 11.0601 9.2477V10.7265H8.88507V13.8164H11.0601V25.014H15.7864V13.8164H18.7144V10.7265H15.7864V9.67178C15.7864 9.13512 15.9443 8.72153 16.2601 8.43103C16.5759 8.14053 17.0274 7.99587 17.6129 7.99587C17.9005 7.99587 19.3699 8.00053 19.3699 8.00053V4.41478C19.3699 4.41478 16.7463 4.3862 16.3713 4.3862C15.2303 4.3862 13.6628 4.57753 12.6216 5.45837ZM21.4487 7.9877H26.1756V4.41478H21.4487V7.9877ZM21.4487 25.0146H26.1756V10.7265H21.4487V25.0146ZM37.8314 10.4622C36.9391 10.4622 36.1299 10.6629 35.4051 11.063C34.6803 11.4632 34.0715 12.0209 33.5787 12.7331L33.3975 10.7265H28.9774V25.014H33.6762V14.7415C33.9178 14.4773 34.2084 14.269 34.5475 14.1209C34.8866 13.9727 35.2747 13.8963 35.7119 13.8963C36.4092 13.8963 36.9367 14.066 37.2943 14.4044C37.652 14.7439 37.8314 15.3214 37.8314 16.141V25.0152H42.5439V16.1544C42.5439 14.1734 42.1277 12.7296 41.2964 11.8225C40.4645 10.9155 39.3091 10.4622 37.8314 10.4622ZM56.7964 17.9697C55.9089 17.2878 54.5442 16.7739 52.704 16.4309C51.533 16.2209 50.7538 15.9817 50.3687 15.7174C49.9829 15.4544 49.7898 15.1318 49.7898 14.7538C49.7898 14.3571 49.9572 14.0334 50.2915 13.7773C50.6258 13.5218 51.0397 13.3934 51.5324 13.3934C52.2016 13.3934 52.6873 13.5393 52.9893 13.8298C53.2913 14.1203 53.4426 14.5473 53.4426 15.1102H58.0158L58.0439 15.0314C58.1001 13.6828 57.5332 12.5867 56.3431 11.7368C55.153 10.8869 53.5538 10.4616 51.5462 10.4616C49.6402 10.4616 48.1302 10.9003 47.0143 11.7764C45.8989 12.6526 45.3415 13.719 45.3415 14.9772C45.3415 16.1654 45.7877 17.104 46.68 17.79C47.5722 18.4772 48.8969 18.983 50.6539 19.309C51.7693 19.5289 52.5383 19.7774 52.9612 20.0545C53.3846 20.3322 53.5957 20.6478 53.5957 20.9978C53.5957 21.4294 53.433 21.7631 53.1077 21.9947C52.7823 22.228 52.3039 22.3465 51.6718 22.3465C50.9099 22.3465 50.3214 22.1954 49.9082 21.8967C49.4943 21.598 49.2784 21.1092 49.2599 20.4314H44.9935L44.966 20.5101C44.9104 21.7258 45.4791 22.8265 46.674 23.8118C47.8683 24.7982 49.4925 25.2905 51.5468 25.2905C53.5269 25.2905 55.1183 24.8746 56.3221 24.0422C57.5266 23.2104 58.1282 22.1528 58.1282 20.8665C58.1282 19.6176 57.6839 18.6516 56.7964 17.9697ZM73.6198 19.0063H73.5361L71.0548 10.7276H68.0844L65.6306 19.0734H65.5469L63.8879 10.7276H59.5378L63.0931 25.0152H67.0677L69.5346 17.4359H69.6183L72.0727 25.0152H76.0604L79.602 10.7276H75.2519L73.6198 19.0063ZM87.6032 10.4621C85.3629 10.4535 83.64 11.1383 82.4367 12.5161C81.2317 13.8934 80.63 15.6696 80.63 17.8437V18.3459C80.63 20.3351 81.2927 21.9906 82.6161 23.3113C83.9408 24.6325 85.7146 25.2923 87.9363 25.2923C89.1354 25.2923 90.2579 25.1406 91.3038 24.8367C92.3492 24.5334 93.2026 24.153 93.8617 23.6951L92.7469 20.9745C91.9288 21.3011 91.2524 21.5292 90.7178 21.6616C90.1825 21.7946 89.4691 21.8605 88.5768 21.8605C87.6935 21.8605 86.9878 21.6249 86.4579 21.1541C85.9275 20.6816 85.6123 20.0814 85.5094 19.351L85.5381 19.2711H94.1541V16.9325C94.1541 14.9434 93.5728 13.3678 92.4114 12.2052C91.2512 11.0432 89.6473 10.4621 87.6032 10.4621ZM89.5552 16.4845H85.4975L85.4556 16.4192C85.5304 15.6527 85.7373 15.0408 86.077 14.5829C86.4155 14.1261 86.925 13.8969 87.6038 13.8969C88.273 13.8969 88.7646 14.0905 89.0821 14.4779C89.3979 14.8652 89.5564 15.4199 89.5564 16.1415L89.5552 16.4845ZM103.418 10.4621C101.177 10.4535 99.4557 11.1383 98.2513 12.5161C97.048 13.8934 96.4452 15.6696 96.4452 17.8437V18.3459C96.4452 20.3351 97.1078 21.9906 98.4325 23.3113C99.7577 24.6325 101.53 25.2923 103.751 25.2923C104.951 25.2923 106.074 25.1406 107.12 24.8367C108.166 24.5334 109.018 24.153 109.678 23.6951L108.563 20.9745C107.745 21.3011 107.069 21.5292 106.534 21.6616C105.998 21.7946 105.285 21.8605 104.393 21.8605C103.51 21.8605 102.804 21.6249 102.274 21.1541C101.743 20.6816 101.428 20.0814 101.325 19.351L101.353 19.2711H109.97V16.9325C109.97 14.9434 109.389 13.3678 108.227 12.2052C107.065 11.0432 105.463 10.4621 103.418 10.4621ZM105.369 16.4845H101.313L101.271 16.4192C101.346 15.6527 101.552 15.0408 101.891 14.5829C102.229 14.1261 102.739 13.8969 103.418 13.8969C104.087 13.8969 104.58 14.0905 104.897 14.4779C105.214 14.8652 105.371 15.4199 105.371 16.1415V16.4851H105.369V16.4845ZM119.652 21.3087C119.067 21.3087 118.615 21.164 118.299 20.8735C117.984 20.583 117.825 20.1683 117.825 19.6316V13.8415H120.277V10.7504H117.825V4.39203H113.099V10.7504H110.923V13.8415H113.099V20.0557C113.099 21.7019 113.619 22.9654 114.66 23.8462C115.7 24.7276 117.267 24.9184 118.41 24.9184C118.786 24.9184 121.409 24.8898 121.409 24.8898V21.304C121.409 21.304 119.941 21.3087 119.652 21.3087Z" fill="#1D2130"/>
</g>
<defs>
<clipPath id="clip0_9031_252">
<rect width="122" height="28" fill="white" transform="translate(0 0.5)"/>
</clipPath>
</defs>
</svg>

<svg xmlns="http://www.w3.org/2000/svg" width="122" height="29" fill="none"><g clip-path="url(#a)"><path d="M1.906 5.64v5.6c0 .92 0 1.951-1.906 1.951V16.2c1.906 0 1.906 1.031 1.906 1.95v5.6c0 4.347 2.381 4.663 6.43 4.663v-3.38c-1.905 0-2.62-.282-2.62-1.366v-5.545c0-1.28.089-2.618-1.03-3.427 1.119-.808 1.03-2.146 1.03-3.427V5.724c0-1.083.715-1.365 2.62-1.365V.978c-4.049 0-6.43.315-6.43 4.662Zm10.716-.182c-1.042.88-1.562 2.144-1.562 3.79v1.479H8.885v3.09h2.175v11.197h4.726V13.816h2.928v-3.09h-2.928V9.672c0-.537.158-.95.474-1.241.316-.29.767-.435 1.353-.435L19.37 8V4.415s-2.624-.029-2.999-.029c-1.14 0-2.708.192-3.75 1.072Zm8.827 2.53h4.727V4.415h-4.727v3.573Zm0 17.027h4.727V10.726h-4.727v14.289ZM37.83 10.462c-.892 0-1.701.2-2.426.601a5.35 5.35 0 0 0-1.826 1.67l-.181-2.007h-4.42v14.288h4.698V14.742c.242-.265.532-.473.871-.621.34-.148.728-.225 1.165-.225.697 0 1.225.17 1.582.508.358.34.537.917.537 1.737v8.874h4.713v-8.86c0-1.982-.416-3.425-1.248-4.333-.831-.906-1.987-1.36-3.465-1.36Zm18.965 7.508c-.887-.682-2.252-1.196-4.092-1.54-1.171-.21-1.95-.448-2.335-.713-.386-.263-.58-.585-.58-.963 0-.397.168-.72.502-.977.335-.255.749-.384 1.241-.384.67 0 1.155.146 1.457.437.302.29.454.717.454 1.28h4.573l.028-.079c.056-1.348-.51-2.444-1.7-3.294-1.191-.85-2.79-1.275-4.798-1.275-1.906 0-3.416.438-4.532 1.314-1.115.877-1.672 1.943-1.672 3.201 0 1.188.446 2.127 1.338 2.813.892.687 2.217 1.193 3.974 1.519 1.115.22 1.884.468 2.307.745.424.278.635.594.635.944 0 .431-.163.765-.488.997-.326.233-.804.351-1.436.351-.762 0-1.35-.15-1.764-.45-.414-.298-.63-.787-.648-1.465h-4.267l-.027.08c-.056 1.215.513 2.316 1.708 3.3 1.194.987 2.819 1.48 4.873 1.48 1.98 0 3.571-.416 4.775-1.249 1.205-.832 1.806-1.89 1.806-3.176 0-1.248-.444-2.214-1.332-2.896Zm16.824 1.036h-.084l-2.481-8.278h-2.97l-2.454 8.345h-.084l-1.66-8.345h-4.35l3.556 14.287h3.975l2.467-7.58h.083l2.455 7.58h3.987l3.542-14.287h-4.35l-1.632 8.278Zm13.983-8.544c-2.24-.008-3.963.676-5.166 2.054-1.205 1.377-1.807 3.154-1.807 5.328v.502c0 1.99.663 3.645 1.986 4.965 1.325 1.322 3.099 1.981 5.32 1.981 1.2 0 2.322-.151 3.368-.455 1.045-.304 1.899-.684 2.558-1.142l-1.115-2.72c-.818.326-1.495.554-2.03.687-.534.133-1.248.198-2.14.198-.883 0-1.59-.235-2.12-.706-.53-.472-.845-1.073-.948-1.803l.03-.08h8.615v-2.338c0-1.99-.581-3.565-1.743-4.728-1.16-1.162-2.764-1.743-4.808-1.743Zm1.952 6.023h-4.058l-.041-.066c.074-.766.281-1.378.621-1.836.338-.457.848-.686 1.527-.686.669 0 1.16.194 1.478.58.316.388.474.943.474 1.665v.343Zm13.863-6.023c-2.241-.008-3.962.676-5.167 2.054-1.203 1.377-1.806 3.154-1.806 5.328v.502c0 1.99.663 3.645 1.988 4.965 1.325 1.322 3.097 1.981 5.318 1.981 1.2 0 2.323-.151 3.369-.455 1.046-.304 1.898-.684 2.558-1.142l-1.115-2.72c-.818.326-1.494.554-2.029.687-.536.133-1.249.198-2.141.198-.883 0-1.589-.235-2.119-.706-.531-.472-.846-1.073-.949-1.803l.028-.08h8.617v-2.338c0-1.99-.581-3.565-1.743-4.728-1.162-1.162-2.764-1.743-4.809-1.743Zm1.951 6.023h-4.056l-.042-.066c.075-.766.281-1.378.62-1.836.338-.457.848-.686 1.527-.686.669 0 1.162.194 1.479.58.317.388.474.943.474 1.665v.343h-.002Zm14.283 4.824c-.585 0-1.037-.145-1.353-.436-.315-.29-.474-.705-.474-1.241v-5.79h2.452V10.75h-2.452V4.392h-4.726v6.358h-2.176v3.091h2.176v6.215c0 1.646.52 2.91 1.561 3.79 1.04.882 2.607 1.072 3.75 1.072.376 0 2.999-.028 2.999-.028v-3.586l-1.757.005Z" fill="#1D2130"/></g><defs><clipPath id="a"><path fill="#fff" transform="translate(0 .5)" d="M0 0h122v28H0z"/></clipPath></defs></svg>
